(
 Pbind(
	\note, Pser([
		[-12, -5, 0, 4], [ -12, -5, 0, 4], [ -12, -5, 0, 4],
		[-12, -5, 0, 4], [ -12, -8, -5, 0], [ -20, -5, -1, 2],
		[-22, -5,-1,4], [ -15, -8, -3, 0]], 8),
 \dur, Pser([0.25, 0.25, 0.25, 0.5, 0.25, 0.5, 0.25, 0.75], inf),
 \ctranspose, 4;
 ).play(TempoClock(44/60));
)

